X:10675
T:Memory Waltz
M:3/4
L:1/4
C:Dave Panting
R:waltz
Z:Gerry Strong,  18/10/1999
K:G
B/2c/2|:d>e d|d2 c|B>c d/2B/2|G2 D|E2 G|cde|ABc|d>e d|d2 c|B>c d/2B/2|G2
D|EGc|B2 A|1GBc:|2GBd||
|:geB|GBg|fdA|FAf|ecG|EGe|ABc|d>e d|d2 c|B>c d/2B/2|G2 D|EGc|B2
A|1GBd:|2G3||
